!!!OTL: Ritter und Magd.
!!!OTL-incipit: Es spielt'sich ein Ritter mit seiner Dam',
!!!ARE: Europa, Mitteleuropa, Deutschland (BRD), Westfalen
!!!YOR: 3, S. 60
!!    ????
!!!SCT: Q0055X
!!!TXL: @@DE
!!!YEM: Copyright 1995, estate of Helmut Schaffrath.
**kern	**text
*ICvox	*
*M4/4	*
*met(c)	*
*k[f#c#]	*
*D:	*
!LO:TX:a:t=36	!
{8f#L	Es
8gJ	.
=1	=1
4a	ſpielt'
8a	ſich
8a	ein
4a	Rit-
8b	-ter
8cc#	mit
=2	=2
4dd	ſei-
8cc#L	-ner
8bJ	.
4a}	Dam',
{8bL	ſie
8cc#J	.
=3	=3
4.dd	ſpiel-
8b	-ten
8aL	al-
8gJ	.
8f#L	-le
8gJ	.
=4	=4
(4.a	bei-
8f#)	.
4d	-de,
4r}	.
=5	=5
{8g	la
8a	la
8b	la
8a	la
8g	la
8b	la
8dd	la
8b	la
=6	=6
8b	la
8a	la
8a	la
8a	la
4a}	la,
{4a	ſie
=7	=7
4b	ſpiel-
4a	-ten
4gg	al-
8ff#L	-le
8eeJ	.
=8	=8
(4dd	bei-
4cc#)	.
4dd}	-de.
==	==
!!!AGN: Ballade, Betrug, Schwangerschaft, Tod, Selbstmord, Herr und Magd
!! Dritte Zeile = Refrain auf sinnfreie Silben.
!!!ONB: ESAC (Essen Associative Code) Database: BALLADE
!!!AMT: simple quadruple
!!!AIN: vox
!!!EED: Helmut Schaffrath
!!!EEV: 1.0
!!!source: Deutsche Volkslieder mit ihren Melodien. Herausgegeben vom Deutschen Volksliedarchiv. Dritter Band Balladen. Berlin 1954.
!!!page: 60
!!!ENC: Anna Maria Matuszewska
!!!EEV: 2025/02/18
*-	*-
